packages/core/src/svgs/tokens/branded/HYDRA.svg

<svg width="24" height="24" viewBox="0 0 24 24" fill="none" xmlns="http://www.w3.org/2000/svg">
<path d="M14.0661 6.05596H14.4772L14.5161 5.4671H14.0661V6.05596ZM14.4772 4.67827L14.0216 4.79493L14.0661 5.22823H14.5605L14.4772 4.67271V4.67827ZM14.355 4.40051L14.0216 3.92832L13.6551 4.20607L13.9439 4.59494L14.355 4.40051ZM13.8162 3.77278L13.2828 3.45613L13.0385 3.73389L13.4884 4.01164L13.8216 3.77278H13.8162ZM12.3774 3.5339L12.8773 3.65612L13.0773 3.37835L12.544 3.2617L12.3774 3.53946V3.5339ZM12.1329 3.50057L12.2552 3.22281H11.5608V3.50057H12.1329ZM9.933 17.944H9.52197L9.48309 18.5329H9.933V17.944ZM9.52197 19.3217L9.97746 19.2051L9.933 18.7717H9.4442L9.52197 19.3273V19.3217ZM9.6442 19.5995L9.97746 20.0717L10.3442 19.7939L10.0552 19.4051L9.6442 19.5995ZM10.183 20.2273L10.7163 20.5439L10.9608 20.2661L10.5108 19.9884L10.1775 20.2273H10.183ZM11.6218 20.4661L11.1219 20.3439L10.9219 20.6217L11.4551 20.7384L11.6218 20.4606V20.4661ZM11.8663 20.4995L11.7441 20.7772H12.444V20.4995H11.8663ZM18.4102 10.7556L18.6158 11.0946L19.1713 10.8334L18.9436 10.4612L18.4102 10.7556ZM19.1546 10.3446L19.4047 10.75L19.8601 10.4112L19.5269 10.0945L19.1546 10.3446ZM20.3102 9.66121L19.8769 9.49465L19.6657 9.92797L20.049 10.1667L20.3102 9.66121ZM20.3545 9.4113L20.3712 8.81132L19.9991 8.74466L19.9768 9.25574L20.3545 9.4113ZM19.849 8.10026L19.988 8.5669L20.3379 8.60022L20.1824 8.10026H19.849ZM19.4769 7.39475L19.7602 7.87249L20.0713 7.83917L19.7269 7.26143L19.4769 7.40031V7.39475ZM5.58891 13.2443L5.38892 12.9055L4.8334 13.1665L5.05561 13.5388L5.58891 13.2443ZM4.84451 13.6555L4.60009 13.2499L4.13901 13.5887L4.47232 13.9054L4.84451 13.6555ZM3.68905 14.3387L4.12234 14.5054L4.33344 14.0721L3.95013 13.8332L3.68905 14.3387ZM3.65016 14.5887L3.62793 15.1886L4.00014 15.2554L4.0279 14.7443L3.65016 14.5887ZM4.15012 15.8997L4.01124 15.4331L3.66127 15.3998L3.81681 15.8997H4.15012ZM4.52231 16.5997L4.239 16.1219L3.92791 16.1608L4.27234 16.7385L4.52231 16.5997Z" fill="#414141"/>
<path d="M21.6551 13.011C21.6551 13.011 21.7107 12.5388 21.7829 11.8C21.8165 11.6106 21.7767 11.4154 21.6713 11.2544C21.5661 11.0934 21.4033 10.9786 21.2162 10.9334L20.994 11.1334C21.0441 11.1 21.1219 11.0667 21.1496 11.239C21.1885 11.4889 20.8607 12.1722 20.8607 12.1722L20.7607 11.2445L20.5607 11.5C20.6052 12.6666 19.783 13.161 19.5886 13.4611C19.3997 13.7666 19.3941 14.172 19.3941 14.172C19.3941 14.172 19.3108 15.3164 18.9775 15.8609C18.6442 16.3997 18.3831 16.4386 17.8221 16.5775C17.2665 16.7108 16.3388 16.022 16.3166 15.9997C16.3333 16.022 16.861 16.7608 17.6109 16.9164C18.3719 17.0719 19.083 16.4663 19.3886 15.9553C19.7052 15.4498 19.722 15.0442 19.722 15.0442C19.722 15.0442 19.6163 14.1165 19.833 13.6888C20.0496 13.2666 20.3886 13.1777 20.3886 13.1777C19.3108 14.7665 20.4275 15.8997 20.4275 15.8997L19.8442 16.8497C19.3219 17.6997 18.1998 17.9774 18.1998 17.9774C16.1444 18.3663 15.0889 15.8997 15.0889 15.8997L15.9556 16.8941L16.2332 16.5941C15.9167 16.4164 15.5111 14.8165 15.5111 14.8165C15.5111 14.8165 15.2056 13.2277 14.3612 12.6555C13.8834 12.3334 13.139 12.3778 12.589 12.4889L12.6224 12.3667C13.539 11.5445 16.3221 11.8278 16.9221 11.9778C17.5332 12.1445 18.4942 11.8444 18.4942 11.8444L18.3554 12.2333C19.2442 12.0667 20.3774 11.0334 20.3774 11.0334C20.3774 11.0334 21.3829 9.70568 21.2495 8.37247C21.1107 7.03923 19.9385 6.18928 19.9385 6.18928L20.3996 5.93931C19.4553 5.86708 18.5998 4.63383 18.5998 4.63383C18.322 4.24497 17.6887 4.45607 17.6887 4.45607L16.6499 3.75611C16.0166 3.32837 15.5889 3.795 15.5889 3.795L15.6555 4.08387C15.6499 4.02276 15.6611 3.93944 15.8277 4.00054C16.1011 4.19412 16.3396 4.43267 16.5333 4.70605L15.6445 4.3283L15.7721 4.62272C16.8554 5.16158 16.8943 6.09485 17.0833 6.40038C17.2665 6.70591 17.6277 6.91701 17.6277 6.91701C17.6277 6.91701 18.622 7.5503 18.9498 8.09471C19.2775 8.64468 19.1831 8.87799 19.0276 9.41688C18.8775 9.95014 17.7609 10.3835 17.7609 10.3835C17.7609 10.3835 18.7109 10.3168 19.233 9.75571C19.7497 9.20019 19.5497 8.31137 19.2442 7.80029C19.082 7.51034 18.8536 7.26288 18.5775 7.07812C18.5775 7.07812 17.6887 6.70591 17.4054 6.31705C17.1276 5.92819 17.2165 5.60044 17.2165 5.60044C18.1276 7.2781 19.7052 6.91146 19.7052 6.91146L20.2774 7.86695C20.7885 8.72245 20.4885 9.7946 20.4885 9.7946C19.8275 11.7 17.0665 11.3612 17.0665 11.3612L18.3998 11.1279L18.2609 10.75C17.9388 10.9223 16.2944 10.4724 16.2944 10.4724C16.2944 10.4724 14.6945 9.93899 13.7668 10.3612C13.2335 10.6056 12.9113 11.2501 12.7334 11.7611L12.6446 11.6723C12.3502 10.5057 13.9945 8.32803 14.439 7.90584C14.8889 7.47253 15.0945 6.52815 15.0945 6.52815L15.3833 6.8448C15.6722 6.01152 15.2999 4.56162 15.2999 4.56162C15.2999 4.56162 14.6 3.06172 13.3279 2.51175C12.0502 1.95624 10.7003 2.51175 10.7003 2.51175V2.00067C10.1615 2.75063 8.62267 2.84506 8.62267 2.84506C8.12826 2.88395 8.0116 3.51169 8.0116 3.51169L6.85612 4.02832C6.15616 4.34497 6.3617 4.93381 6.3617 4.93381L6.65614 5.01714C6.60058 4.99491 6.53392 4.93937 6.67279 4.83382C6.87835 4.67828 7.65607 4.6005 7.65607 4.6005L6.87835 5.15046L7.20609 5.18935C8.23381 4.56162 9.09486 4.99491 9.46699 4.99491C9.83369 4.99491 10.2058 4.79494 10.2058 4.79494C10.2058 4.79494 11.2725 4.28385 11.928 4.28385C12.589 4.28385 12.7502 4.47828 13.1612 4.87271C13.5723 5.26712 13.4112 6.41149 13.4112 6.41149C13.4112 6.41149 13.8223 5.57821 13.5779 4.87271C13.3279 4.16719 12.4223 3.88944 11.8057 3.88944C11.1947 3.88944 10.8226 4.08942 10.8226 4.08942C10.8226 4.08942 10.0448 4.63939 9.54477 4.67828C9.05596 4.71716 8.80599 4.47828 8.80599 4.47828C10.7781 4.56162 11.2336 3.06172 11.2336 3.06172H12.3835C13.4112 3.06172 14.2334 3.85056 14.2334 3.85056C15.611 5.32823 13.9834 7.42809 13.9445 7.47253L14.3945 6.2504L13.9834 6.17262C13.9834 6.52815 12.7502 7.67252 12.7502 7.67252C12.7502 7.67252 11.4781 8.728 11.3947 9.71682C11.3503 10.2834 11.7836 10.8834 12.1557 11.2778L12.0446 11.3112C10.8447 10.9779 9.71146 8.48913 9.55591 7.91139C9.39483 7.31698 8.65045 6.66702 8.65045 6.66702L9.08374 6.58925C8.48379 5.93375 6.98388 5.50044 6.98388 5.50044C6.98388 5.50044 5.28401 5.31713 4.14519 6.08929C3.00083 6.86146 2.81195 8.25581 2.81195 8.25581L2.34531 8.00028C2.74528 8.82244 2.05645 10.1446 2.05645 10.1446C1.83424 10.5723 2.33976 10.9889 2.33976 10.9889C2.33976 10.9889 2.28421 11.4611 2.21754 12.2C2.18388 12.3895 2.22376 12.5846 2.32906 12.7457C2.43436 12.9067 2.59712 13.0215 2.78417 13.0666L3.00638 12.8666C2.95638 12.8999 2.87861 12.9332 2.85083 12.7611C2.81194 12.5111 3.1397 11.8278 3.1397 11.8278L3.23969 12.7555L3.43969 12.4999C3.39524 11.3333 4.21741 10.839 4.41184 10.539C4.60071 10.2335 4.60627 9.82791 4.60627 9.82791C4.60627 9.82791 4.68959 8.68356 5.02291 8.1447C5.35622 7.60029 5.61732 7.56697 6.18394 7.42253C6.73946 7.2892 7.66162 7.97805 7.68384 8.00028C7.36479 7.56204 6.90968 7.2417 6.38948 7.08923C5.62843 6.92812 4.92291 7.53364 4.61182 8.04471C4.29518 8.5558 4.28408 8.96131 4.28408 8.96131C4.28408 8.96131 4.38406 9.88351 4.17296 10.3057C3.95076 10.7334 3.61745 10.8168 3.61745 10.8168C4.68959 9.23352 3.57301 8.09471 3.57301 8.09471L4.15631 7.15033C4.67849 6.30039 5.80619 6.02263 5.80619 6.02263C7.86161 5.62822 8.91709 8.10027 8.91709 8.10027L8.04492 7.10033L7.76717 7.40586C8.08381 7.58364 8.48934 9.18352 8.48934 9.18352C8.48934 9.18352 8.79488 10.7723 9.63926 11.3389C10.1281 11.6723 10.8836 11.6167 11.4336 11.5056L11.4059 11.6055C10.5225 12.461 7.68384 12.1722 7.07833 12.0167C6.46725 11.8611 5.50621 12.1555 5.50621 12.1555L5.6451 11.7611C4.75626 11.9333 3.62301 12.9665 3.62301 12.9665C3.62301 12.9665 2.61751 14.2943 2.7564 15.6275C2.88972 16.9608 4.06187 17.8107 4.06187 17.8107L3.60078 18.0662C4.54517 18.1384 5.40067 19.3662 5.40067 19.3662C5.67842 19.7551 6.31171 19.5439 6.31171 19.5439L7.35053 20.2439C7.98382 20.6716 8.41157 20.205 8.41157 20.205L8.3449 19.9162C8.35046 19.9772 8.33936 20.0606 8.1727 19.9995C7.89932 19.8059 7.66076 19.5674 7.46719 19.294L8.35603 19.6717L8.22824 19.3773C7.14499 18.8384 7.1061 17.9051 6.92278 17.5996C6.73946 17.2885 6.37837 17.083 6.37837 17.083C6.37837 17.083 5.37844 16.4497 5.05069 15.9053C4.72293 15.3553 4.82292 15.122 4.97292 14.5832C5.1229 14.0499 6.2395 13.6166 6.2395 13.6166C6.2395 13.6166 5.28956 13.6832 4.76737 14.2444C4.25074 14.7998 4.45073 15.6886 4.75626 16.1997C5.06735 16.7164 5.42289 16.9219 5.42289 16.9219C5.42289 16.9219 6.31171 17.2996 6.59502 17.6885C6.87279 18.0774 6.78391 18.3996 6.78391 18.3996C5.87285 16.7219 4.29518 17.0941 4.29518 17.0941C4.29518 17.0941 4.23963 16.9886 3.723 16.1386C3.21192 15.2831 3.5119 14.2055 3.5119 14.2055C4.17296 12.3 6.93389 12.6444 6.93389 12.6444L5.60621 12.8722L5.73952 13.2555C6.06174 13.0778 7.70607 13.5333 7.70607 13.5333C7.70607 13.5333 9.30595 14.0609 10.2337 13.6443C10.7781 13.3943 11.1002 12.7388 11.2725 12.2277L11.3503 12.3C11.6835 13.4666 10.0114 15.6664 9.56706 16.0942C9.11152 16.5275 8.90598 17.4719 8.90598 17.4719L8.62267 17.1552C8.3338 17.9885 8.70044 19.4384 8.70044 19.4384C8.70044 19.4384 9.40039 20.9382 10.6725 21.4882C11.9503 22.0438 13.3057 21.4882 13.3057 21.4882V21.9993C13.839 21.2493 15.3777 21.155 15.3777 21.155C15.8778 21.1161 15.9944 20.4883 15.9944 20.4883L17.1443 19.9717C17.8443 19.655 17.6443 19.0663 17.6443 19.0663L17.3443 18.9829C17.3998 19.0051 17.4665 19.0607 17.3332 19.1662C17.1276 19.3217 16.3444 19.3995 16.3444 19.3995L17.1221 18.8495L16.7999 18.8106C15.7721 19.4384 14.9111 19.0051 14.5389 19.0051C14.1668 19.0051 13.8001 19.2051 13.8001 19.2051C13.8001 19.2051 12.728 19.7162 12.0724 19.7162C11.4169 19.7162 11.2503 19.5217 10.8392 19.1273C10.4281 18.7329 10.5947 17.5886 10.5947 17.5886C10.5947 17.5886 10.1837 18.4218 10.4281 19.1273C10.6725 19.8328 11.578 20.1106 12.1946 20.1106C12.8112 20.1106 13.1835 19.9106 13.1835 19.9106C13.1835 19.9106 13.9612 19.3606 14.4556 19.3217C14.95 19.2828 15.1944 19.5217 15.1944 19.5217C13.2224 19.4384 12.7723 20.9382 12.7723 20.9382H11.6225C10.9339 20.8938 10.2813 20.6155 9.77264 20.1495C8.38935 18.6718 10.0225 16.572 10.0614 16.5275L9.60595 17.7496L10.017 17.8273C10.017 17.4719 11.2503 16.3275 11.2503 16.3275C11.2503 16.3275 12.528 15.272 12.6058 14.2832C12.6557 13.7165 12.2225 13.1277 11.8502 12.7278L11.9613 12.6943C13.1668 13.0389 14.2945 15.5109 14.4444 16.0886C14.6111 16.683 15.35 17.333 15.35 17.333L14.9222 17.4107C15.5167 18.0662 17.0165 18.4995 17.0165 18.4995C17.0165 18.4995 18.7165 18.6828 19.8608 17.9107C20.9996 17.133 21.1941 15.7442 21.1941 15.7442L21.6551 15.9997C21.2495 15.1776 21.944 13.8555 21.944 13.8555C22.1662 13.4332 21.6551 13.011 21.6551 13.011ZM18.072 4.90049C18.072 4.90049 18.2887 4.78383 18.3276 4.84493L18.5498 5.22268C18.5498 5.22268 18.3109 5.22268 18.072 4.90049ZM8.60045 3.41725C8.60045 3.41725 8.60045 3.18393 8.68377 3.18393H9.13374C9.13374 3.18393 9.01153 3.37836 8.60045 3.41725ZM2.55641 10.4501C2.55641 10.4501 2.34531 10.3334 2.38976 10.2612L2.61751 9.88909C2.61751 9.88909 2.72862 10.089 2.56197 10.4445L2.55641 10.4501ZM5.92841 19.0996C5.92841 19.0996 5.71176 19.2162 5.67287 19.1495L5.45066 18.7717C5.45066 18.7717 5.68398 18.7773 5.92841 19.0996ZM15.4 20.5828C15.4 20.5828 15.4 20.8161 15.3167 20.8161H14.8667C14.8667 20.8161 14.9888 20.6217 15.4 20.5828ZM21.6162 13.7388L21.3829 14.111C21.3829 14.111 21.2718 13.911 21.4385 13.5554C21.4385 13.5554 21.6607 13.6665 21.6162 13.7388Z" fill="#414141"/>
<path d="M16.088 17.0607L16.5991 17.3941L16.8268 17.0219L16.2992 16.7219L16.088 17.0607ZM17.449 17.3329L17.038 17.1441L16.788 17.5497L17.3268 17.7607L17.449 17.3274V17.3329ZM18.1657 17.3218L17.6657 17.3607L17.6379 17.7996L18.2267 17.7663L18.1713 17.3218H18.1657ZM18.9045 17.0552L18.4268 17.2885L18.4768 17.6774L19.0322 17.3996L18.9045 17.0552ZM19.0601 16.9608L19.2045 17.2663L19.5822 16.8886L19.4156 16.6108L19.0601 16.9608ZM20.1156 16.0942L19.8711 15.9553L19.5766 16.4274L19.7656 16.6719L20.1156 16.0942ZM7.9108 6.93922L7.39972 6.60591L7.17196 6.9781L7.70526 7.27809L7.9108 6.93922ZM6.54978 6.66701L6.96086 6.8559L7.21085 6.45037L6.67199 6.23926L6.54978 6.67257V6.66701ZM5.83316 6.67813L6.33314 6.63925L6.3609 6.20038L5.77206 6.23372L5.82761 6.67813H5.83316ZM5.09432 6.94478L5.57207 6.71146L5.52207 6.3226L4.96656 6.60036L5.09432 6.94478ZM4.93878 7.03922L4.79434 6.73368L4.41659 7.11143L4.58325 7.3892L4.93878 7.03922ZM3.8833 7.90583L4.12773 8.0447L4.42215 7.57252L4.23883 7.32808L3.8833 7.90583Z" fill="#414141"/>
<path d="M12.9715 5.4449C11.5691 5.2615 10.1438 5.49326 8.87182 6.11151L9.16068 6.32261C10.3586 5.77351 11.6898 5.58251 12.9938 5.77266L12.9715 5.45044V5.4449ZM14.8603 17.6774C13.6381 18.2329 12.2715 18.4274 10.9384 18.2162V18.5329C12.3354 18.7392 13.7624 18.5326 15.0436 17.9385L14.8548 17.6774H14.8603ZM5.88313 14.2832L5.5776 14.4053C6.10763 15.683 7.01954 16.7657 8.18852 17.5052V17.1219C7.16149 16.4202 6.36206 15.4335 5.88869 14.2832H5.88313ZM18.5601 12.5111C18.4476 13.8061 17.9261 15.0317 17.0713 16.0108L17.3879 16.1386C18.2602 15.1101 18.7869 13.8332 18.8934 12.4889L18.5601 12.5111ZM15.8325 6.50037V6.88369C16.8618 7.58434 17.6633 8.57122 18.1378 9.7224L18.4323 9.578C17.901 8.31022 16.9936 7.23602 15.8325 6.50037ZM6.60531 7.88917C5.72989 8.93539 5.21038 10.2332 5.12207 11.5945L5.45538 11.5112C5.56032 10.2476 6.05534 9.04793 6.87195 8.07805L6.60531 7.88917Z" fill="#0E0E0E"/>
</svg>

<svg xmlns="http://www.w3.org/2000/svg" width="24" height="24" fill="none" viewBox="0 0 24 24">
    <path fill="#414141" d="M14.066 6.056h.411l.04-.589h-.45zm.411-1.378-.455.117.044.433h.494l-.083-.555zm-.122-.277-.333-.473-.367.278.289.389zm-.539-.628-.533-.317-.244.278.45.278.333-.24zm-1.439-.24.5.123.2-.278-.533-.116-.167.277zm-.244-.032.122-.278h-.694V3.5zm-2.2 14.443h-.411l-.039.589h.45zm-.411 1.378.455-.117-.044-.433h-.489l.078.555zm.122.277.333.473.367-.278-.289-.389zm.539.628.533.317.245-.278-.45-.278-.333.24zm1.439.24-.5-.123-.2.278.533.116.167-.277zm.244.033-.122.277h.7V20.5zm6.544-9.744.206.339.555-.262-.227-.372zm.745-.411.25.405.455-.339-.333-.316zm1.155-.684-.433-.166-.211.433.383.239zm.045-.25.016-.6L20 8.745l-.022.51zm-.506-1.31.139.466.35.033-.156-.5zm-.372-.706.283.477.311-.033-.344-.578-.25.14zm-13.888 5.85-.2-.34-.556.261.223.373zm-.744.41L4.6 13.25l-.461.339.333.316zm-1.156.684.433.166.211-.433-.383-.239zm-.039.25-.022.6.372.066.028-.51zm.5 1.31-.139-.466-.35-.033.156.5zm.372.7-.283-.477-.311.039.344.577z"/>
    <path fill="#414141" d="M21.655 13.011s.056-.472.128-1.211a.755.755 0 0 0-.567-.867l-.222.2c.05-.033.128-.066.156.106.039.25-.29.933-.29.933l-.1-.928-.2.256c.045 1.167-.777 1.661-.971 1.961-.19.306-.195.711-.195.711s-.083 1.144-.416 1.689c-.334.539-.595.578-1.156.716-.555.134-1.483-.555-1.505-.577.016.022.544.76 1.294.916.76.156 1.472-.45 1.778-.96.316-.506.333-.912.333-.912s-.106-.928.111-1.355c.217-.422.556-.511.556-.511-1.078 1.588.038 2.722.038 2.722l-.583.95c-.522.85-1.644 1.127-1.644 1.127-2.056.39-3.111-2.077-3.111-2.077l.867.994.277-.3c-.316-.178-.722-1.778-.722-1.778s-.305-1.588-1.15-2.16c-.478-.323-1.222-.278-1.772-.167l.033-.122c.917-.823 3.7-.54 4.3-.39.611.168 1.572-.133 1.572-.133l-.139.39c.89-.167 2.022-1.2 2.022-1.2s1.006-1.328.873-2.662c-.14-1.333-1.311-2.183-1.311-2.183l.46-.25c-.944-.072-1.8-1.305-1.8-1.305-.277-.389-.91-.178-.91-.178l-1.04-.7c-.632-.428-1.06.039-1.06.039l.066.289c-.005-.061.006-.145.173-.083.273.193.512.432.705.705l-.889-.378.128.295c1.083.539 1.122 1.472 1.311 1.777.184.306.545.517.545.517s.994.633 1.322 1.178c.328.55.233.783.078 1.322-.15.533-1.267.966-1.267.966s.95-.066 1.472-.627c.517-.556.317-1.445.011-1.956a2.1 2.1 0 0 0-.666-.722s-.89-.372-1.173-.761c-.277-.389-.189-.717-.189-.717.912 1.678 2.49 1.311 2.49 1.311l.571.956c.511.855.211 1.928.211 1.928-.66 1.905-3.421 1.566-3.421 1.566l1.333-.233-.14-.378c-.321.172-1.966-.278-1.966-.278s-1.6-.533-2.527-.11c-.534.244-.856.888-1.034 1.4l-.088-.09c-.295-1.166 1.35-3.344 1.794-3.766.45-.433.656-1.378.656-1.378l.288.317c.29-.833-.083-2.283-.083-2.283s-.7-1.5-1.972-2.05c-1.278-.556-2.628 0-2.628 0V2c-.538.75-2.077.844-2.077.844-.495.039-.611.667-.611.667l-1.156.516c-.7.317-.494.906-.494.906l.294.083c-.055-.022-.122-.078.017-.183.205-.156.983-.233.983-.233l-.778.55.328.038c1.028-.627 1.889-.194 2.261-.194.367 0 .739-.2.739-.2s1.067-.511 1.722-.511c.661 0 .822.194 1.233.589s.25 1.538.25 1.538.411-.833.167-1.538c-.25-.706-1.156-.984-1.772-.984-.611 0-.983.2-.983.2s-.778.55-1.278.59c-.489.038-.739-.2-.739-.2 1.972.083 2.428-1.417 2.428-1.417h1.15c1.027 0 1.85.789 1.85.789 1.377 1.477-.25 3.577-.29 3.622l.45-1.223-.41-.077c0 .355-1.234 1.5-1.234 1.5s-1.272 1.055-1.355 2.044c-.045.566.389 1.166.76 1.56l-.11.034c-1.2-.333-2.334-2.822-2.49-3.4-.16-.594-.905-1.244-.905-1.244l.434-.078c-.6-.655-2.1-1.089-2.1-1.089s-1.7-.183-2.839.59c-1.144.771-1.333 2.166-1.333 2.166L2.345 8c.4.822-.289 2.145-.289 2.145-.222.427.284.844.284.844s-.056.472-.122 1.211a.756.756 0 0 0 .566.867l.222-.2c-.05.033-.127.066-.155-.106-.04-.25.289-.933.289-.933l.1.928.2-.256c-.045-1.167.777-1.661.972-1.961.189-.306.194-.711.194-.711s.084-1.144.417-1.683c.333-.545.594-.578 1.16-.722.556-.134 1.479.555 1.5.577a2.46 2.46 0 0 0-1.294-.91c-.76-.162-1.466.444-1.777.955-.317.51-.328.916-.328.916s.1.923-.111 1.345c-.222.427-.556.51-.556.51 1.073-1.582-.044-2.721-.044-2.721l.583-.945c.522-.85 1.65-1.127 1.65-1.127C7.862 5.628 8.917 8.1 8.917 8.1l-.872-1-.278.306c.317.178.722 1.778.722 1.778s.306 1.588 1.15 2.155c.49.333 1.245.278 1.795.167l-.028.1c-.883.855-3.722.566-4.328.41-.61-.155-1.572.14-1.572.14l.14-.395c-.89.172-2.023 1.206-2.023 1.206s-1.005 1.327-.867 2.66c.134 1.334 1.306 2.184 1.306 2.184l-.461.255c.944.072 1.8 1.3 1.8 1.3.277.39.91.178.91.178l1.04.7c.633.428 1.06-.039 1.06-.039l-.066-.289c.005.061-.006.145-.172.084a3 3 0 0 1-.706-.706l.889.378-.128-.295c-1.083-.539-1.122-1.472-1.305-1.777-.184-.312-.545-.517-.545-.517s-1-.633-1.327-1.178c-.328-.55-.228-.783-.078-1.322.15-.533 1.266-.966 1.266-.966s-.95.066-1.472.627c-.516.556-.316 1.445-.01 1.956.31.516.666.722.666.722s.889.378 1.172.767c.278.388.189.71.189.71-.911-1.677-2.489-1.305-2.489-1.305s-.055-.105-.572-.955c-.511-.856-.211-1.933-.211-1.933.661-1.906 3.422-1.562 3.422-1.562l-1.328.228.134.383c.322-.177 1.966.278 1.966.278s1.6.528 2.528.111c.544-.25.866-.905 1.039-1.416l.077.072c.334 1.167-1.339 3.366-1.783 3.794-.455.433-.661 1.378-.661 1.378l-.283-.317c-.29.833.077 2.283.077 2.283s.7 1.5 1.973 2.05c1.277.556 2.633 0 2.633 0V22c.533-.75 2.072-.844 2.072-.844.5-.039.616-.667.616-.667l1.15-.516c.7-.317.5-.906.5-.906l-.3-.083c.056.022.122.078-.01.183-.206.156-.99.233-.99.233l.778-.55-.322-.038c-1.028.627-1.889.194-2.261.194s-.739.2-.739.2-1.072.511-1.728.511-.822-.194-1.233-.589c-.41-.394-.244-1.538-.244-1.538s-.411.833-.167 1.538 1.15.984 1.767.984c.616 0 .989-.2.989-.2s.777-.55 1.272-.59c.494-.038.738.2.738.2-1.972-.083-2.422 1.417-2.422 1.417h-1.15a3.03 3.03 0 0 1-1.85-.788c-1.383-1.478.25-3.578.29-3.622l-.456 1.222.411.077c0-.355 1.233-1.5 1.233-1.5s1.278-1.055 1.356-2.044c.05-.566-.383-1.155-.756-1.555l.111-.034c1.206.345 2.333 2.817 2.483 3.395.167.594.906 1.244.906 1.244l-.428.078c.595.655 2.095 1.088 2.095 1.088s1.7.184 2.844-.588c1.139-.778 1.333-2.167 1.333-2.167l.461.256c-.405-.822.289-2.145.289-2.145.222-.422-.289-.844-.289-.844m-3.583-8.11s.217-.117.256-.056l.222.378s-.24 0-.478-.323M8.6 3.416s0-.233.084-.233h.45s-.122.194-.534.233M2.556 10.45s-.21-.117-.166-.189l.228-.372s.11.2-.056.556zm3.372 8.65s-.216.116-.255.05l-.222-.378s.233.005.477.328m9.472 1.483s0 .233-.083.233h-.45s.122-.194.533-.233m6.216-6.844-.233.372s-.111-.2.056-.556c0 0 .222.111.177.184"/>
    <path fill="#414141" d="m16.088 17.06.511.334.228-.372-.528-.3zm1.361.273-.411-.189-.25.406.539.21.122-.433zm.717-.011-.5.039-.028.439.589-.034-.056-.444zm.738-.267-.477.233.05.39.555-.278zm.156-.094.145.305.377-.377-.166-.278zm1.056-.867-.245-.139-.294.472.189.245zM7.91 6.94l-.51-.334-.228.372.533.3zm-1.36-.273.41.189.25-.406-.538-.21-.122.433zm-.717.011.5-.039.028-.439-.589.034.056.444zm-.739.267.478-.234-.05-.388-.555.277zm-.155.094-.145-.305-.377.377.166.278zm-1.056.867.245.139.294-.472-.183-.245z"/>
    <path fill="#0E0E0E" d="M12.972 5.445a7.23 7.23 0 0 0-4.1.667l.289.21a6.83 6.83 0 0 1 3.833-.55l-.022-.322zm1.888 12.232a6.9 6.9 0 0 1-3.922.54v.316a7.25 7.25 0 0 0 4.106-.594l-.19-.262zm-8.977-3.394-.305.122a6.7 6.7 0 0 0 2.61 3.1v-.383a6.4 6.4 0 0 1-2.3-2.839zm12.677-1.772a6.13 6.13 0 0 1-1.489 3.5l.317.128a6.43 6.43 0 0 0 1.505-3.65zm-2.727-6.01v.383a6.37 6.37 0 0 1 2.305 2.838l.294-.144a6.7 6.7 0 0 0-2.6-3.078M6.605 7.888a6.42 6.42 0 0 0-1.483 3.706l.333-.084a6.1 6.1 0 0 1 1.417-3.433z"/>
</svg>
